packages/elvis-assets-icons/icons/svg/src/upload.svg

<svg width="24" height="24" viewBox="0 0 24 24" fill="none" xmlns="http://www.w3.org/2000/svg">
<g clip-path="url(#clip0)">
<path d="M12.0003 16.5C11.5863 16.5 11.2503 16.164 11.2503 15.75V5.561L8.03027 8.781C7.88927 8.922 7.70027 9 7.50027 9C7.30027 9 7.11127 8.922 6.97027 8.78C6.82827 8.639 6.75027 8.45 6.75027 8.25C6.75027 8.05 6.82827 7.861 6.97027 7.72L11.4693 3.22C11.5393 3.15 11.6213 3.095 11.7143 3.057C11.7223 3.054 11.7303 3.051 11.7393 3.048C11.8253 3.016 11.9123 3 12.0003 3C12.0893 3 12.1773 3.016 12.2613 3.048C12.2683 3.05 12.2753 3.053 12.2813 3.055C12.3783 3.095 12.4603 3.15 12.5313 3.221L17.0303 7.72C17.1723 7.861 17.2503 8.05 17.2503 8.25C17.2503 8.45 17.1723 8.639 17.0303 8.78C16.8883 8.921 16.7003 9 16.5003 9C16.3003 9 16.1113 8.922 15.9703 8.78L12.7503 5.56V15.75C12.7503 16.164 12.4143 16.5 12.0003 16.5Z" fill="black"/>
<path d="M3.75027 21C1.68227 21 0.000274658 19.318 0.000274658 17.25V15.75C0.000274658 15.336 0.336275 15 0.750274 15C1.16427 15 1.50027 15.336 1.50027 15.75V17.25C1.50027 18.491 2.50927 19.5 3.75027 19.5H20.2503C21.4913 19.5 22.5003 18.491 22.5003 17.25V15.75C22.5003 15.336 22.8363 15 23.2503 15C23.6643 15 24.0003 15.336 24.0003 15.75V17.25C24.0003 19.318 22.3183 21 20.2503 21H3.75027Z" fill="black"/>
</g>
<defs>
<clipPath id="clip0">
<path d="M-0.000732422 0H23.9993V24H-0.000732422V0Z" fill="white"/>
</clipPath>
</defs>
</svg>

<svg width="24" height="24" fill="none" xmlns="http://www.w3.org/2000/svg"><g clip-path="url(#clip0)" fill="#000"><path d="M12 16.5a.75.75 0 01-.75-.75V5.561l-3.22 3.22a.746.746 0 01-1.06-.001.743.743 0 01-.22-.53c0-.2.078-.389.22-.53l4.5-4.5a.74.74 0 01.244-.163l.025-.009a.743.743 0 01.522 0l.02.007c.097.04.18.095.25.166l4.5 4.499c.141.141.22.33.22.53s-.079.389-.22.53a.749.749 0 01-1.06 0l-3.22-3.22v10.19a.75.75 0 01-.75.75z"/><path d="M3.75 21A3.754 3.754 0 010 17.25v-1.5a.75.75 0 011.5 0v1.5a2.252 2.252 0 002.25 2.25h16.5a2.252 2.252 0 002.25-2.25v-1.5a.75.75 0 011.5 0v1.5A3.754 3.754 0 0120.25 21H3.75z"/></g><defs><clipPath id="clip0"><path d="M0 0h24v24H0V0z" fill="#fff"/></clipPath></defs></svg>
